icons/facebook.svg

<svg width="24" height="24" viewBox="0 0 24 24" fill="none" xmlns="http://www.w3.org/2000/svg">
<path fill-rule="evenodd" clip-rule="evenodd" d="M16.122 2.06C15.056 2.01 14.717 2 12 2C9.283 2 8.944 2.013 7.878 2.06C6.812 2.11 6.088 2.277 5.45 2.525C4.78243 2.77573 4.17767 3.16923 3.678 3.678C3.1688 4.17732 2.77524 4.78218 2.525 5.45C2.277 6.088 2.11 6.812 2.06 7.878C2.01 8.944 2 9.283 2 12C2 14.717 2.013 15.056 2.06 16.122C2.11 17.187 2.277 17.913 2.525 18.55C2.77593 19.2175 3.16941 19.8222 3.678 20.322C4.17753 20.8309 4.78233 21.2245 5.45 21.475C6.088 21.722 6.813 21.89 7.878 21.94C8.944 21.99 9.283 22 12 22C14.717 22 15.056 21.987 16.122 21.94C17.187 21.89 17.913 21.722 18.55 21.475C19.2173 21.2238 19.822 20.8303 20.322 20.322C20.8311 19.8226 21.2247 19.2178 21.475 18.55C21.722 17.912 21.89 17.187 21.94 16.122C21.99 15.056 22 14.717 22 12C22 9.283 21.987 8.944 21.94 7.878C21.89 6.813 21.722 6.087 21.475 5.45C21.224 4.78259 20.8305 4.1779 20.322 3.678C19.766 3.123 19.21 2.779 18.55 2.525C17.912 2.277 17.187 2.11 16.122 2.06ZM7.971 4.058C9.122 4.007 9.526 4 12 4C14.539 4 14.925 4.006 16.029 4.058C16.811 4.094 17.337 4.199 17.827 4.389C18.2355 4.53917 18.6047 4.77985 18.907 5.093C19.2191 5.39596 19.4593 5.765 19.61 6.173C19.8 6.661 19.905 7.189 19.942 7.971C19.993 9.122 20 9.526 20 12C20 14.539 19.994 14.925 19.942 16.029C19.906 16.809 19.8 17.336 19.61 17.829C19.444 18.259 19.243 18.572 18.906 18.909C18.574 19.241 18.259 19.442 17.826 19.611C17.338 19.8 16.811 19.905 16.029 19.942C15.2928 19.9746 14.8622 19.9892 14 19.9955V13H16.1C16.3652 13 16.6196 12.8946 16.8071 12.7071C16.9946 12.5196 17.1 12.2652 17.1 12C17.1 11.7348 16.9946 11.4804 16.8071 11.2929C16.6196 11.1054 16.3652 11 16.1 11H14V9.5C14 9.30302 14.0388 9.10796 14.1142 8.92597C14.1896 8.74399 14.3001 8.57863 14.4393 8.43934C14.5786 8.30005 14.744 8.18956 14.926 8.11418C15.108 8.0388 15.303 8 15.5 8H16.1C16.3652 8 16.6196 7.89464 16.8071 7.70711C16.9946 7.51957 17.1 7.26522 17.1 7C17.1 6.73478 16.9946 6.48043 16.8071 6.29289C16.6196 6.10536 16.3652 6 16.1 6H15.5C14.5717 6 13.6815 6.36875 13.0251 7.02513C12.3687 7.6815 12 8.57174 12 9.5V11H11C10.7348 11 10.4804 11.1054 10.2929 11.2929C10.1054 11.4804 10 11.7348 10 12C10 12.2652 10.1054 12.5196 10.2929 12.7071C10.4804 12.8946 10.7348 13 11 13H12V20C9.461 20 9.075 19.994 7.971 19.942C7.191 19.906 6.665 19.8 6.171 19.609C5.741 19.443 5.428 19.242 5.091 18.906C4.759 18.574 4.559 18.261 4.389 17.826C4.2 17.339 4.095 16.812 4.058 16.029C4.007 14.878 4 14.474 4 12C4 9.461 4.006 9.075 4.058 7.971C4.094 7.188 4.199 6.663 4.389 6.173C4.53935 5.76458 4.78001 5.3954 5.093 5.093C5.426 4.759 5.739 4.558 6.173 4.39C6.661 4.2 7.187 4.095 7.971 4.058Z" fill="black"/>
</svg>

<svg
  width="24"
  height="24"
  viewBox="0 0 24 24"
  xmlns="http://www.w3.org/2000/svg"
>
  <path
    fill-rule="evenodd"
    clip-rule="evenodd"
    d="M16.122 2.06C15.056 2.01 14.717 2 12 2c-2.717 0-3.056.013-4.122.06-1.066.05-1.79.217-2.428.465a4.897 4.897 0 0 0-1.772 1.153A4.88 4.88 0 0 0 2.525 5.45c-.248.638-.415 1.362-.465 2.428C2.01 8.944 2 9.283 2 12c0 2.717.013 3.056.06 4.122.05 1.065.217 1.791.465 2.428.25.668.644 1.272 1.153 1.772a4.89 4.89 0 0 0 1.772 1.153c.638.247 1.363.415 2.428.465 1.066.05 1.405.06 4.122.06 2.717 0 3.056-.013 4.122-.06 1.065-.05 1.791-.218 2.428-.465a4.914 4.914 0 0 0 1.772-1.153c.51-.5.903-1.104 1.153-1.772.247-.638.415-1.363.465-2.428.05-1.066.06-1.405.06-4.122 0-2.717-.013-3.056-.06-4.122-.05-1.065-.218-1.791-.465-2.428a4.907 4.907 0 0 0-1.153-1.772 4.876 4.876 0 0 0-1.772-1.153c-.638-.248-1.363-.415-2.428-.465zM7.971 4.058C9.122 4.007 9.526 4 12 4c2.539 0 2.925.006 4.029.058.782.036 1.308.141 1.798.331.408.15.778.39 1.08.704.312.303.552.672.703 1.08.19.488.295 1.016.332 1.798C19.993 9.122 20 9.526 20 12c0 2.539-.006 2.925-.058 4.029-.036.78-.142 1.307-.332 1.8-.166.43-.367.743-.704 1.08a2.92 2.92 0 0 1-1.08.702c-.488.189-1.015.294-1.797.331a46.28 46.28 0 0 1-2.029.053V13h2.1a1 1 0 0 0 0-2H14V9.5A1.5 1.5 0 0 1 15.5 8h.6a1 1 0 1 0 0-2h-.6A3.5 3.5 0 0 0 12 9.5V11h-1a1 1 0 0 0 0 2h1v7c-2.539 0-2.925-.006-4.029-.058-.78-.036-1.306-.142-1.8-.333a2.901 2.901 0 0 1-1.08-.703 2.917 2.917 0 0 1-.702-1.08c-.189-.487-.294-1.014-.331-1.797C4.007 14.878 4 14.474 4 12c0-2.539.006-2.925.058-4.029.036-.783.141-1.308.331-1.798a2.89 2.89 0 0 1 .704-1.08 2.886 2.886 0 0 1 1.08-.703c.488-.19 1.014-.295 1.798-.332z"
  />
</svg>
